!!!COM: Gaspar van Weerbeke
!!!CDT: ~1450-~1517
!!!OTL: Vidi speciosam sicut columbam
!!!AGN: Motet
!!!SCT: Gas0411
!!!SCA: Gas0411
!!!voices: 4
**kern	**text	**kern	**text	**kern	**text	**kern	**text
*part4	*part4	*part3	*part3	*part2	*part2	*part1	*part1
*staff4	*staff4	*staff3	*staff3	*staff2	*staff2	*staff1	*staff1
*I"Bassus	*	*I"Tenor	*	*I"Altus	*	*I"Superius	*
*I'B	*	*I'T	*	*I'A	*	*I'S	*
*clefF4	*	*clefGv2	*	*clefGv2	*	*clefG2	*
*k[]	*	*k[]	*	*k[]	*	*k[]	*
*M3/2	*	*M3/2	*	*M3/2	*	*M3/2	*
!!LO:TX:a:t=[cut-c-3]
*met(C|3)	*	*met(C|3)	*	*met(C|3)	*	*met(C|3)	*
=1	=1	=1	=1	=1	=1	=1	=1
1AA	Vi-	1.r	.	1A	Vi-	1.r	.
2AA	-di	.	.	2A	-di	.	.
=2	=2	=2	=2	=2	=2	=2	=2
1D	spe-	1.r	.	1A	spe-	1.r	.
2D	-ci-	.	.	2F	-ci-	.	.
=3	=3	=3	=3	=3	=3	=3	=3
*col	*	*	*	*	*	*	*
1C	-o-	1.r	.	1E	-o-	1.r	.
2D	.	.	.	4F	.	.	.
.	.	.	.	4E	.	.	.
=4	=4	=4	=4	=4	=4	=4	=4
2AA	.	1.r	.	1A	.	1.r	.
1BB	.	.	.	.	.	.	.
*Xcol	*	*	*	*	*	*	*
.	.	.	.	2G#i	.	.	.
=5	=5	=5	=5	=5	=5	=5	=5
*lig	*	*	*	*	*	*	*
1.AA	-sam,	1.r	.	1A	-sam	1.a	Vi-
.	.	.	.	2e	sic-	.	.
=6	=6	=6	=6	=6	=6	=6	=6
1D	.	1.A	Vi-	1f	-ut	2.a	-di
*Xlig	*	*	*	*	*	*	*
.	.	.	.	.	.	4g	.
*	*edit	*	*	*	*	*	*
2D	vi-	.	.	2d	co-	4f	.
.	.	.	.	.	.	4e	.
!!LO:LB:g=original
=7	=7	=7	=7	=7	=7	=7	=7
*lig	*	*	*	*lig	*	*	*
2C	-di	2.A	-di	2e	-lum-	1e	.
2AA	.	.	.	2c	.	.	.
*Xlig	*	*	*	*Xlig	*	*	*
.	.	4G	.	.	.	.	.
2D	.	4F	.	2d	.	2r	.
.	.	4E	.	.	.	.	.
=8	=8	=8	=8	=8	=8	=8	=8
*col	*	*col	*	*	*	*col	*
1E	spe-	1E	spe-	1B	.	1g	spe-
2E	-ci-	2G	-ci-	2G	-bam,	2g	-ci-
=9	=9	=9	=9	=9	=9	=9	=9
2F	.	2A	.	2r	.	2f	.
1G	-o-	1B	-o-	1g	a-	1d	-o-
*Xcol	*	*Xcol	*	*	*	*Xcol	*
=10	=10	=10	=10	=10	=10	=10	=10
1.C	-sam	1.c	-sam	2.e	-scen-	1c	-sam
.	.	.	.	4f	.	.	.
.	.	.	.	2g	-den-	2r	.
=11	=11	=11	=11	=11	=11	=11	=11
*	*Xedit	*	*	*	*	*	*
*col	*	*col	*	*	*	*col	*
1C	sic-	1e	sic-	1.c	-tem	1g	sic-
2C	-ut	2e	-ut	.	.	2g	-ut
=12	=12	=12	=12	=12	=12	=12	=12
2C	co-	2c	co-	1.r	.	2a	co-
1G	-lum-	1d	-lum-	.	.	1b	-lum-
*Xcol	*	*Xcol	*	*	*	*Xcol	*
=13	=13	=13	=13	=13	=13	=13	=13
1.C	-bam,	1.c	-bam,	1.g	su-	1cc	-bam,
.	.	.	.	.	.	2r	.
!!LO:LB:g=original
=14	=14	=14	=14	=14	=14	=14	=14
1.r	.	1e	a-	2c	-per	2g	a-
.	.	.	.	2r	.	4a	.
.	.	.	.	.	.	2b	-scen-
.	.	2e	-scen-	2g	ri-	.	.
.	.	.	.	.	.	4cc	.
=15	=15	=15	=15	=15	=15	=15	=15
2G	a-	2d	-den-	2g	-vos	2dd	-den-
4A	.	4A	.	4f	.	4cc	.
2G	-scen-	2d	.	2g	a-	2b	.
4A	.	4c	.	4c	.	4a	.
=16	=16	=16	=16	=16	=16	=16	=16
*lig	*	*lig	*	*lig	*	*	*
2F	-den-	2A	.	2d	-qua-	1a	.
1E	.	1B	.	1e	.	.	.
*Xlig	*	*Xlig	*	*Xlig	*	*	*
.	.	.	.	.	.	2g#i	.
=17	=17	=17	=17	=17	=17	=17	=17
1F	-tem	1A	-tem	1c	-rum,	1.a	-tem
2D	su-	2r	.	2r	.	.	.
=18	=18	=18	=18	=18	=18	=18	=18
*	*	*	*	*	*edit	*	*
1C	-per	1c	su-	1e	su-	1.r	.
2r	.	2B	-per	2d	-per	.	.
=19	=19	=19	=19	=19	=19	=19	=19
*	*	*col	*	*	*	*	*
1.r	.	1c	ri-	2.e	ri-	1cc	su-
.	.	.	.	4f	.	.	.
.	.	2G	-vos	2g	-vos	2b	-per
=20	=20	=20	=20	=20	=20	=20	=20
*	*	*	*	*	*Xedit	*	*
2.F	ri-	2A	a-	1c	a-	2.cc	ri-
.	.	1F	.	.	.	.	.
4G	.	.	.	.	.	4b	.
2A	-vos	.	.	2d	.	2a	-vos
!!LO:LB:g=original
=21	=21	=21	=21	=21	=21	=21	=21
*col	*	*	*	*col	*	*col	*
2B	a-	2E	-qua-	1e	-qua-	2g	a-
2c	.	2C	.	.	.	2a	.
[2A	-qua-	[2D	.	[2d	.	[2f	-qua-
=22	=22	=22	=22	=22	=22	=22	=22
2A]	.	2D]	.	2d]	.	2f]	.
1G	-rum,	1E	-rum,	1B	-rum,	1e	-rum,
*Xcol	*	*Xcol	*	*Xcol	*	*Xcol	*
=23	=23	=23	=23	=23	=23	=23	=23
2C	cu-	1.r	.	2c	cu-	2e	cu-
2C	-ius	.	.	2c	-ius	2e	-ius
2C	in-	.	.	2c	in-	2e	in-
=24	=24	=24	=24	=24	=24	=24	=24
1G	-e-	1.r	.	1B	-e-	1d	-e-
2E	-sti-	.	.	2c	-sti-	2e	-sti-
=25	=25	=25	=25	=25	=25	=25	=25
1D	-ma-	2A	cu-	1d	-ma-	1f	-ma-
.	.	2A	-ius	.	.	.	.
2D	-bi-	2A	in-	2d	.	2f	-bi-
=26	=26	=26	=26	=26	=26	=26	=26
1E	-lis	1G	-e-	2.B	.	1g	-lis
.	.	.	.	4c	.	.	.
2F	.	2A	-sti-	2d	.	2r	.
=27	=27	=27	=27	=27	=27	=27	=27
1E	o-	1B	-ma-	1e	.	1g	o-
2G	-dor	2B	-bi-	2d	-bi-	2g	-dor
!!LO:PB:g=original
=28	=28	=28	=28	=28	=28	=28	=28
1C	e-	1c	-lis	1c	-lis	1e	e-
2D	-rat	2A	o-	2r	.	2f	-rat
=29	=29	=29	=29	=29	=29	=29	=29
*lig	*	*lig	*	*col	*	*	*
2E	ni-	2B	-dor	2e	o-	2.g	ni-
2C	.	2c	.	2e	-dor	.	.
*Xlig	*	*Xlig	*	*	*	*	*
.	.	.	.	.	.	4e	.
2F	.	2A	e-	2c	e-	4f	.
.	.	.	.	.	.	4g	.
=30	=30	=30	=30	=30	=30	=30	=30
2C	.	2G	-rat	2c	-rat	1e	.
1D	.	1F	ni-	1A	ni-	.	.
*	*	*	*	*Xcol	*	*	*
.	.	.	.	.	.	2d	.
=31	=31	=31	=31	=31	=31	=31	=31
1AA	-mis	1E	-mis	1A	-mis	1.e	-mis
2r	.	2r	.	2r	.	.	.
=32	=32	=32	=32	=32	=32	=32	=32
2C	in	2E	in	1.r	.	1.r	.
2C	ve-	2E	ve-	.	.	.	.
2C	-sti-	2E	-sti-	.	.	.	.
=33	=33	=33	=33	=33	=33	=33	=33
*col	*	*	*	*	*	*	*
1E	-men-	1G	-men-	1.r	.	1.r	.
2F	-tis	2A	-tis	.	.	.	.
=34	=34	=34	=34	=34	=34	=34	=34
2E	e-	1c	e-	1.r	.	1.r	.
1D	.	.	.	.	.	.	.
*Xcol	*	*	*	*	*	*	*
.	.	2B	.	.	.	.	.
!!LO:LB:g=original
=35	=35	=35	=35	=35	=35	=35	=35
1.C	-ius,	1.c	-ius,	2G	in	2e	in
.	.	.	.	2G	ve-	2e	ve-
.	.	.	.	2G	-sti-	2e	-sti-
=36	=36	=36	=36	=36	=36	=36	=36
*	*edit	*	*edit	*	*	*	*
*col	*	*col	*	*col	*	*	*
2E	e-	[1.c	e-	2G	-men-	1g	-men-
2C	.	.	.	2g	.	.	.
2F	.	.	.	2f	-tis	2a	-tis
=37	=37	=37	=37	=37	=37	=37	=37
2A	.	2c]	.	2e	e-	1cc	e-
1G	.	1d	.	1g	.	.	.
*Xcol	*	*Xcol	*	*Xcol	*	*	*
.	.	.	.	.	.	2b	.
=38	=38	=38	=38	=38	=38	=38	=38
1C	-ius.	1.c	-ius.	1.e	-ius.	1cc	-ius.
2r	.	.	.	.	.	2r	.
=39	=39	=39	=39	=39	=39	=39	=39
*	*Xedit	*	*	*	*	*	*
1F	Cir-	1.r	.	2.c	Cir-	1cc	Cir-
.	.	.	.	4d	.	.	.
2G	-cum-	.	.	2e	-cum-	2b	-cum-
=40	=40	=40	=40	=40	=40	=40	=40
*	*	*	*Xedit	*	*	*	*
1F	-da-	1c	Cir-	1f	-da-	1a	-da-
2G	-bant	2B	-cum-	2d	-bant	2g	-bant
=41	=41	=41	=41	=41	=41	=41	=41
2A	e-	1A	-da-	2c	e-	1cc	e-
2F	.	.	.	2f	.	.	.
2G	-am	2G	-bant	2d	-am	2b	-am
!!LO:LB:g=original
=42	=42	=42	=42	=42	=42	=42	=42
2A	flo-	1c	e-	2c	flo-	1a	flo-
2F	.	.	.	2f	.	.	.
2G	-res	2B	-am	2d	-res	2g	-res
=43	=43	=43	=43	=43	=43	=43	=43
2C	ro-	2c	flo-	2e	ro-	2e	ro-
1D	.	2A	-res	1d	.	2.f	.
.	.	2B	ro-	.	.	.	.
.	.	.	.	.	.	4g	.
=44	=44	=44	=44	=44	=44	=44	=44
*	*	*col	*	*	*	*	*
2C	.	1c	-sa-	2g	-sa-	2e	.
1F	-sa-	.	.	2.f	.	2.a	-sa-
.	.	2d	.	.	.	.	.
.	.	.	.	4e	.	4g	.
=45	=45	=45	=45	=45	=45	=45	=45
2G	.	2B	.	1.d	.	1g	.
1D	.	1A	.	.	.	.	.
*	*	*Xcol	*	*	*	*	*
.	.	.	.	.	.	2f#i	.
=46	=46	=46	=46	=46	=46	=46	=46
1E	-rum	1G	-rum	1B	-rum	1.g	-rum
2C	.	2E	et	2r	.	.	.
=47	=47	=47	=47	=47	=47	=47	=47
2B	et	2.G	li-	2d	et	1.r	.
2B	li-	.	.	2d	li-	.	.
.	.	4F	.	.	.	.	.
2B	-li-	2D	-li-	2d	-li-	.	.
=48	=48	=48	=48	=48	=48	=48	=48
1c	-a	1C	-a	2.e	-a	2r	.
.	.	.	.	.	.	2r	.
.	.	.	.	4d	.	.	.
2C	con-	2r	.	4c	con-	2e	et
.	.	.	.	8BL	.	.	.
.	.	.	.	8AJ	.	.	.
!!LO:LB:g=original
=49	=49	=49	=49	=49	=49	=49	=49
2E	-val-	1c	con-	1G	-val-	2.g	li-
2C	.	.	.	.	.	.	.
.	.	.	.	.	.	4f	.
2G	-li-	2d	.	2g	-li-	2d	-li-
=50	=50	=50	=50	=50	=50	=50	=50
2.C	-um,	1e	-val-	1g	-um,	1c	-a
4D	.	.	.	.	.	.	.
*	*	*	*	*	*edit	*	*
4E	.	2e	-li-	2g	con-	2cc	con-
4F	.	.	.	.	.	.	.
=51	=51	=51	=51	=51	=51	=51	=51
*	*edit	*	*	*	*	*	*
*col	*	*lig	*	*	*	*	*
2G	con-	2d	-um,	2g	-val-	2b	.
2C	-val-	2e	.	2e	.	2.cc	-val-
*	*	*Xlig	*	*	*	*	*
[2F	.	2c	.	2f	.	.	.
.	.	.	.	.	.	4b	.
=52	=52	=52	=52	=52	=52	=52	=52
2F]	.	2d	.	2d	.	2a	.
1E	.	1B	.	2.e	.	1g	.
*Xcol	*	*	*	*	*	*	*
.	.	.	.	8fL	.	.	.
.	.	.	.	8gJ	.	.	.
=53	=53	=53	=53	=53	=53	=53	=53
*	*	*	*edit	*	*	*	*
2F	.	2A	con-	2a	.	2cc	.
1G	.	1d	-val-	2.g	.	2.b	.
.	.	.	.	4e	.	4a	.
=54	=54	=54	=54	=54	=54	=54	=54
2A	.	2c	.	1e	.	1a	.
1E	-li-	1B	-li-	.	.	.	.
.	.	.	.	2e	-li-	2g#i	-li-
=55	=55	=55	=55	=55	=55	=55	=55
1.AAl	-um.	1.Al	-um.	1.el	-um.	1.al	-um.
==	==	==	==	==	==	==	==
*-	*-	*-	*-	*-	*-	*-	*-
!!!system-decoration: [*]
!!!RDF**kern: j = editorial accidental, optional, paren up
!!!RDF**kern: i = editorial accidental
!!!RDF**kern: l = terminal breve
!!!PTL: Gaspar van Weerbeke: Collected Works. IV. Motets
!!!PPR: American Institute of Musicology
!!!PC#: Corpus Mensurabilis Musicae 106/IV
!!!PDT: 2010
!!!YEC: Copyright 2010, Pavanello, Agnese
!!!YEM: CC-BY-SA 4.0 (https://creativecommons.org/licenses/by-nc/4.0/legalcode)
!!!EED: Mair-Gruber, Roland
!!!EEV: 2021/08/19
